symbols/web/notification_important/materialsymbolsoutlined/notification_important_wght200gradN25fill1_40px.svg

<svg xmlns="http://www.w3.org/2000/svg" height="40" width="40"><path d="M19.333 22.5h1.375v-8.167h-1.375ZM20 26.292q.417 0 .667-.25.25-.25.25-.625 0-.417-.25-.667-.25-.25-.667-.25-.417 0-.667.25-.25.25-.25.625 0 .417.25.667.25.25.667.25ZM7.583 31.208v-1.375h3.375V17q0-3.167 2.063-5.771 2.062-2.604 5.396-3.187V6.875q0-.708.437-1.146.438-.437 1.146-.437t1.146.437q.437.438.437 1.146v1.167q3.334.583 5.417 3.187 2.083 2.604 2.083 5.771v12.833h3.375v1.375ZM20 35.958q-1.083 0-1.875-.77-.792-.771-.792-1.896h5.334q0 1.125-.771 1.896-.771.77-1.896.77Z"/></svg>

<svg xmlns="http://www.w3.org/2000/svg" height="40" width="40"><path d="M19.333 22.5H20.708V14.333H19.333ZM20 26.292Q20.417 26.292 20.667 26.042Q20.917 25.792 20.917 25.417Q20.917 25 20.667 24.75Q20.417 24.5 20 24.5Q19.583 24.5 19.333 24.75Q19.083 25 19.083 25.375Q19.083 25.792 19.333 26.042Q19.583 26.292 20 26.292ZM7.583 31.208V29.833H10.958V17Q10.958 13.833 13.021 11.229Q15.083 8.625 18.417 8.042V6.875Q18.417 6.167 18.854 5.729Q19.292 5.292 20 5.292Q20.708 5.292 21.146 5.729Q21.583 6.167 21.583 6.875V8.042Q24.917 8.625 27 11.229Q29.083 13.833 29.083 17V29.833H32.458V31.208ZM20 35.958Q18.917 35.958 18.125 35.188Q17.333 34.417 17.333 33.292H22.667Q22.667 34.417 21.896 35.188Q21.125 35.958 20 35.958Z"/></svg>
